X:1

T:Barn Door, The

M:6/8

L:1/8

K:A Minor

EAA A^GA | Bcd e2^f | g^fg ege | dBG G2 | EAA A^GA | Bcd e2f | g^fg edB | A3A3 :|

|: aea aea | aea b2a | gdg gdg | gdg g3 | aea aea | aea b2a | efe dcB | A3 a3 :|

                       

BARN ELMS. English, “Old” Hornpipe (3/2 time). G Minor. Standard tuning. AABB. The tune appears in an early 18th century edition of Playford’s Dancing Master. Barnes (English Country Dance Tunes), 1989. Beautiful Jo BEJOCD-36, Dave Shepherd & Becky Price – “Ashburnham.”

                       

BARN OWL. Irish, Jig. D Major. Standard tuning. AABB. Dervish – “Live in Palma” (appears as third tune in Killavil set).

